places/128/folder-locked.svg

<?xml version="1.0" encoding="UTF-8" standalone="no"?>
<!-- Created with Inkscape (http://www.inkscape.org/) -->

<svg
   xmlns:dc="http://purl.org/dc/elements/1.1/"
   xmlns:cc="http://creativecommons.org/ns#"
   xmlns:rdf="http://www.w3.org/1999/02/22-rdf-syntax-ns#"
   xmlns:svg="http://www.w3.org/2000/svg"
   xmlns="http://www.w3.org/2000/svg"
   xmlns:xlink="http://www.w3.org/1999/xlink"
   xmlns:sodipodi="http://sodipodi.sourceforge.net/DTD/sodipodi-0.dtd"
   xmlns:inkscape="http://www.inkscape.org/namespaces/inkscape"
   width="128"
   height="128"
   viewBox="0 0 128 128"
   version="1.1"
   id="svg8"
   inkscape:version="0.92.2 2405546, 2018-03-11"
   sodipodi:docname="folder-locked.svg">
  <title
     id="title7895">Antu icon Theme</title>
  <defs
     id="defs2">
    <linearGradient
       inkscape:collect="always"
       id="linearGradient4631">
      <stop
         style="stop-color:#c2f0f2;stop-opacity:1"
         offset="0"
         id="stop4627" />
      <stop
         style="stop-color:#f2feff;stop-opacity:1"
         offset="1"
         id="stop4629" />
    </linearGradient>
    <style
       type="text/css"
       id="current-color-scheme">
      .ColorScheme-Text {
        color:#122036;
      }
      </style>
    <style
       type="text/css"
       id="current-color-scheme-7">
      .ColorScheme-Text {
        color:#122036;
      }
      </style>
    <style
       type="text/css"
       id="current-color-scheme-5">
      .ColorScheme-Text {
        color:#122036;
      }
      </style>
    <style
       id="current-color-scheme-9"
       type="text/css">
      .ColorScheme-Text {
        color:#122036;
      }
      </style>
    <style
       id="current-color-scheme-1"
       type="text/css">
      .ColorScheme-Text {
        color:#122036;
      }
      </style>
    <style
       type="text/css"
       id="current-color-scheme-10">
      .ColorScheme-Text {
        color:#122036;
      }
      </style>
    <style
       id="current-color-scheme-6"
       type="text/css">
      .ColorScheme-Text {
        color:#122036;
      }
      </style>
    <style
       id="current-color-scheme-7-1"
       type="text/css">
      .ColorScheme-Text {
        color:#122036;
      }
      </style>
    <style
       id="current-color-scheme-5-2"
       type="text/css">
      .ColorScheme-Text {
        color:#122036;
      }
      </style>
    <linearGradient
       inkscape:collect="always"
       xlink:href="#linearGradient4631"
       id="linearGradient4306"
       x1="31"
       y1="306.1857"
       x2="31"
       y2="285.1857"
       gradientUnits="userSpaceOnUse"
       gradientTransform="matrix(2.0000005,0,0,2.0000005,1.9999849,-514.37155)" />
    <linearGradient
       inkscape:collect="always"
       xlink:href="#linearGradient10239"
       id="linearGradient948"
       x1="17"
       y1="362.14999"
       x2="17"
       y2="346.64999"
       gradientUnits="userSpaceOnUse" />
    <linearGradient
       id="linearGradient10239"
       inkscape:collect="always">
      <stop
         id="stop10235"
         offset="0"
         style="stop-color:#348be7;stop-opacity:1" />
      <stop
         id="stop10237"
         offset="1"
         style="stop-color:#3997f1;stop-opacity:1" />
    </linearGradient>
    <linearGradient
       inkscape:collect="always"
       xlink:href="#linearGradient10231"
       id="linearGradient980"
       x1="41"
       y1="404.64999"
       x2="41"
       y2="354.64999"
       gradientUnits="userSpaceOnUse" />
    <linearGradient
       id="linearGradient10231"
       inkscape:collect="always">
      <stop
         id="stop10227"
         offset="0"
         style="stop-color:#3e9ff4;stop-opacity:1" />
      <stop
         id="stop10229"
         offset="1"
         style="stop-color:#50c2f9;stop-opacity:1" />
    </linearGradient>
  </defs>
  <sodipodi:namedview
     id="base"
     pagecolor="#ffffff"
     bordercolor="#666666"
     borderopacity="1.0"
     inkscape:pageopacity="0.0"
     inkscape:pageshadow="2"
     inkscape:zoom="16"
     inkscape:cx="59.175822"
     inkscape:cy="20.465125"
     inkscape:document-units="px"
     inkscape:current-layer="layer1-9"
     showgrid="true"
     units="px"
     inkscape:window-width="1360"
     inkscape:window-height="711"
     inkscape:window-x="0"
     inkscape:window-y="28"
     inkscape:window-maximized="1"
     objecttolerance="10"
     gridtolerance="10"
     guidetolerance="10">
    <inkscape:grid
       type="xygrid"
       id="grid7897"
       empspacing="4" />
  </sodipodi:namedview>
  <metadata
     id="metadata5">
    <rdf:RDF>
      <cc:Work
         rdf:about="">
        <dc:format>image/svg+xml</dc:format>
        <dc:type
           rdf:resource="http://purl.org/dc/dcmitype/StillImage" />
        <dc:title>Antu icon Theme</dc:title>
      </cc:Work>
    </rdf:RDF>
  </metadata>
  <g
     inkscape:label="Capa 1"
     inkscape:groupmode="layer"
     id="layer1"
     transform="translate(0,-186.64999)">
    <g
       id="g5223"
       transform="translate(23.999997,20.000005)">
      <g
         transform="matrix(2,0,0,2,-35.999997,-520.64999)"
         id="g1658">
        <path
           id="path1651"
           transform="matrix(0.5,0,0,0.5,5.5,263.64999)"
           d="m 9,165 c -3.8607028,0 -7,3.1393 -7,7 v 104 c 0,3.8607 3.1392972,7 7,7 h 112 c 3.8607,0 7,-3.1393 7,-7 v -88 c 0,-3.8607 -3.1393,-7 -7,-7 H 65 c -0.716666,0 -1.721469,-0.70632 -2.859375,-2.125 -1.137904,-1.41868 -2.355204,-3.40752 -3.679687,-5.42578 -1.324484,-2.01826 -2.760475,-4.07436 -4.445313,-5.67578 C 52.330789,166.172 50.333334,165 48,165 Z"
           style="color:#000000;font-style:normal;font-variant:normal;font-weight:normal;font-stretch:normal;font-size:medium;line-height:normal;font-family:sans-serif;font-variant-ligatures:normal;font-variant-position:normal;font-variant-caps:normal;font-variant-numeric:normal;font-variant-alternates:normal;font-feature-settings:normal;text-indent:0;text-align:start;text-decoration:none;text-decoration-line:none;text-decoration-style:solid;text-decoration-color:#000000;letter-spacing:normal;word-spacing:normal;text-transform:none;writing-mode:lr-tb;direction:ltr;text-orientation:mixed;dominant-baseline:auto;baseline-shift:baseline;text-anchor:start;white-space:normal;shape-padding:0;clip-rule:nonzero;display:inline;overflow:visible;visibility:visible;opacity:1;isolation:auto;mix-blend-mode:normal;color-interpolation:sRGB;color-interpolation-filters:linearRGB;solid-color:#000000;solid-opacity:1;vector-effect:none;fill:#286bb2;fill-opacity:1;fill-rule:nonzero;stroke:none;stroke-width:2;stroke-linecap:round;stroke-linejoin:round;stroke-miterlimit:4;stroke-dasharray:none;stroke-dashoffset:0;stroke-opacity:1;color-rendering:auto;image-rendering:auto;shape-rendering:auto;text-rendering:auto;enable-background:accumulate"
           inkscape:connector-curvature="0" />
        <path
           sodipodi:nodetypes="sccssssssss"
           inkscape:connector-curvature="0"
           id="rect1558"
           d="m 10,346.64999 h 19.5 c 4,0 6,8 8.5,8 h 28 c 1.662,0 3,1.338 3,3 v 44 c 0,1.662 -1.338,3 -3,3 H 10 c -1.662,0 -3,-1.338 -3,-3 v -52 c 0,-1.662 1.338,-3 3,-3 z"
           style="opacity:1;vector-effect:none;fill:url(#linearGradient948);fill-opacity:1;stroke:none;stroke-width:1;stroke-linecap:round;stroke-linejoin:round;stroke-miterlimit:4;stroke-dasharray:none;stroke-dashoffset:0;stroke-opacity:1" />
        <path
           id="path1644"
           transform="matrix(0.5,0,0,0.5,5.5,263.64999)"
           d="m 65,181 c -1.783334,0 -3.153529,1.29368 -4.421875,2.875 -1.268344,1.58132 -2.488546,3.59248 -3.789063,5.57422 -1.300516,1.98174 -2.677023,3.92564 -4.148437,5.32422 C 51.169213,196.172 49.666666,197 48,197 H 9 c -3.8607028,0 -7,3.1393 -7,7 v 72 c 0,3.8607 3.1392972,7 7,7 h 112 c 3.8607,0 7,-3.1393 7,-7 v -88 c 0,-3.8607 -3.1393,-7 -7,-7 z"
           style="color:#000000;font-style:normal;font-variant:normal;font-weight:normal;font-stretch:normal;font-size:medium;line-height:normal;font-family:sans-serif;font-variant-ligatures:normal;font-variant-position:normal;font-variant-caps:normal;font-variant-numeric:normal;font-variant-alternates:normal;font-feature-settings:normal;text-indent:0;text-align:start;text-decoration:none;text-decoration-line:none;text-decoration-style:solid;text-decoration-color:#000000;letter-spacing:normal;word-spacing:normal;text-transform:none;writing-mode:lr-tb;direction:ltr;text-orientation:mixed;dominant-baseline:auto;baseline-shift:baseline;text-anchor:start;white-space:normal;shape-padding:0;clip-rule:nonzero;display:inline;overflow:visible;visibility:visible;opacity:1;isolation:auto;mix-blend-mode:normal;color-interpolation:sRGB;color-interpolation-filters:linearRGB;solid-color:#000000;solid-opacity:1;vector-effect:none;fill:#3182d9;fill-opacity:1;fill-rule:nonzero;stroke:none;stroke-width:2;stroke-linecap:round;stroke-linejoin:round;stroke-miterlimit:4;stroke-dasharray:none;stroke-dashoffset:0;stroke-opacity:1;color-rendering:auto;image-rendering:auto;shape-rendering:auto;text-rendering:auto;enable-background:accumulate"
           inkscape:connector-curvature="0" />
        <path
           sodipodi:nodetypes="sccssssssss"
           inkscape:connector-curvature="0"
           id="rect1558-6"
           d="m 10,362.64999 h 19.5 c 4,0 6,-8 8.5,-8 h 28 c 1.662,0 3,1.338 3,3 v 44 c 0,1.662 -1.338,3 -3,3 H 10 c -1.662,0 -3,-1.338 -3,-3 v -36 c 0,-1.662 1.338,-3 3,-3 z"
           style="opacity:1;vector-effect:none;fill:url(#linearGradient980);fill-opacity:1;stroke:none;stroke-width:1;stroke-linecap:round;stroke-linejoin:round;stroke-miterlimit:4;stroke-dasharray:none;stroke-dashoffset:0;stroke-opacity:1" />
      </g>
    </g>
    <g
       id="layer1-9"
       inkscape:label="Capa 1"
       transform="translate(0,2)">
      <g
         transform="translate(23.999997,20.000005)"
         id="g5223-1" />
      <path
         inkscape:connector-curvature="0"
         style="opacity:1;fill:#3182d9;fill-opacity:1;stroke:none;stroke-width:8.00000191;stroke-linecap:round;stroke-linejoin:round;stroke-miterlimit:4;stroke-dasharray:none;stroke-dashoffset:0;stroke-opacity:1"
         d="m 64,239.64999 c -7.756002,0 -14,6.244 -14,14 v 4 h -2 c -1.108,0 -2,0.89199 -2,2 v 26 c 0,1.108 0.892,2 2,2 h 20 2 1 1 8 c 1.108,0 2,-0.892 2,-2 v -2 -4 -4 -4 -12 c 0,-1.10801 -0.892,-2 -2,-2 h -2 v -4 c 0,-7.756 -6.243998,-14 -14,-14 z m 0,6 c 4.432001,0 8,3.568 8,8 v 4 H 56 v -4 c 0,-4.432 3.567999,-8 8,-8 z m -0.207031,20 h 0.414062 c 2.102233,0 3.792969,1.69074 3.792969,3.79296 v 0.41407 c 0,1.44746 -0.813976,2.68402 -2,3.32422 v 6.46875 c 0,1.108 -0.892,2 -2,2 -1.108,0 -2,-0.892 -2,-2 v -6.46875 c -1.186024,-0.6402 -2,-1.87676 -2,-3.32422 v -0.41407 c 0,-2.10222 1.690736,-3.79296 3.792969,-3.79296 z"
         id="rect4256-0-6" />
      <g
         inkscape:label="Capa 1"
         id="layer1-6"
         transform="matrix(2.0000005,0,0,2.0000005,-1.5e-5,-314.65013)">
        <g
           transform="translate(0,-1.0000054)"
           id="g4164">
          <path
             style="opacity:1;fill:url(#linearGradient4306);fill-opacity:1;stroke:none;stroke-width:8.00000191;stroke-linecap:round;stroke-linejoin:round;stroke-miterlimit:4;stroke-dasharray:none;stroke-dashoffset:0;stroke-opacity:1"
             d="m 64,52 c -7.756002,0 -14,6.243998 -14,14 v 4 h -2 c -1.108,0 -2,0.892 -2,2 v 26 c 0,1.108 0.892,2 2,2 h 20 2 1 1 8 c 1.108,0 2,-0.892 2,-2 V 96 92 88 84 72 c 0,-1.108 -0.892,-2 -2,-2 H 78 V 66 C 78,58.243998 71.756002,52 64,52 Z m 0,6 c 4.432001,0 8,3.567999 8,8 v 4 H 56 v -4 c 0,-4.432001 3.567999,-8 8,-8 z m -0.207031,20 h 0.414062 C 66.309264,78 68,79.690748 68,81.792969 v 0.414062 c 0,1.447461 -0.813976,2.684019 -2,3.324219 V 92 c 0,1.108 -0.892,2 -2,2 -1.108,0 -2,-0.892 -2,-2 v -6.46875 c -1.186024,-0.6402 -2,-1.876758 -2,-3.324219 V 81.792969 C 60,79.690748 61.690736,78 63.792969,78 Z"
             transform="matrix(0.49999988,0,0,0.49999988,7.4999981e-6,251.65)"
             id="rect4256-0"
             inkscape:connector-curvature="0" />
        </g>
      </g>
    </g>
  </g>
</svg>

<?xml version="1.0" encoding="UTF-8" standalone="no"?>
<!-- Created with Inkscape (http://www.inkscape.org/) -->

<svg
   xmlns:dc="http://purl.org/dc/elements/1.1/"
   xmlns:cc="http://creativecommons.org/ns#"
   xmlns:rdf="http://www.w3.org/1999/02/22-rdf-syntax-ns#"
   xmlns:svg="http://www.w3.org/2000/svg"
   xmlns="http://www.w3.org/2000/svg"
   xmlns:xlink="http://www.w3.org/1999/xlink"
   xmlns:sodipodi="http://sodipodi.sourceforge.net/DTD/sodipodi-0.dtd"
   xmlns:inkscape="http://www.inkscape.org/namespaces/inkscape"
   width="128"
   height="128"
   viewBox="0 0 128 128"
   version="1.1"
   id="svg8"
   inkscape:version="0.92.2 2405546, 2018-03-11"
   sodipodi:docname="folder-locked.svg">
  <title
     id="title7895">Antu icon Theme</title>
  <defs
     id="defs2">
    <linearGradient
       gradientTransform="matrix(3.7795275,0,0,3.7795275,27.120554,-829.99771)"
       inkscape:collect="always"
       xlink:href="#linearGradient6793"
       id="linearGradient6795"
       x1="-6.9110637"
       y1="272.42764"
       x2="-6.9110637"
       y2="265.81305"
       gradientUnits="userSpaceOnUse" />
    <linearGradient
       inkscape:collect="always"
       id="linearGradient6793">
      <stop
         style="stop-color:#3489e5;stop-opacity:1"
         offset="0"
         id="stop6789" />
      <stop
         style="stop-color:#3b99f3;stop-opacity:1"
         offset="1"
         id="stop6791" />
    </linearGradient>
    <linearGradient
       gradientTransform="matrix(3.7795275,0,0,3.7795275,-16.821079,-865.60561)"
       inkscape:collect="always"
       xlink:href="#linearGradient4530"
       id="linearGradient4532"
       x1="15.298494"
       y1="304.60306"
       x2="15.298494"
       y2="279.20306"
       gradientUnits="userSpaceOnUse" />
    <linearGradient
       inkscape:collect="always"
       id="linearGradient4530">
      <stop
         style="stop-color:#3c99f3;stop-opacity:1"
         offset="0"
         id="stop4526" />
      <stop
         style="stop-color:#52c6f9;stop-opacity:1"
         offset="1"
         id="stop4528" />
    </linearGradient>
    <linearGradient
       inkscape:collect="always"
       id="linearGradient4631">
      <stop
         style="stop-color:#c2f0f2;stop-opacity:1"
         offset="0"
         id="stop4627" />
      <stop
         style="stop-color:#f2feff;stop-opacity:1"
         offset="1"
         id="stop4629" />
    </linearGradient>
    <style
       type="text/css"
       id="current-color-scheme">
      .ColorScheme-Text {
        color:#122036;
      }
      </style>
    <style
       type="text/css"
       id="current-color-scheme-7">
      .ColorScheme-Text {
        color:#122036;
      }
      </style>
    <style
       type="text/css"
       id="current-color-scheme-5">
      .ColorScheme-Text {
        color:#122036;
      }
      </style>
    <style
       id="current-color-scheme-9"
       type="text/css">
      .ColorScheme-Text {
        color:#122036;
      }
      </style>
    <style
       id="current-color-scheme-1"
       type="text/css">
      .ColorScheme-Text {
        color:#122036;
      }
      </style>
    <style
       type="text/css"
       id="current-color-scheme-10">
      .ColorScheme-Text {
        color:#122036;
      }
      </style>
    <style
       id="current-color-scheme-6"
       type="text/css">
      .ColorScheme-Text {
        color:#122036;
      }
      </style>
    <style
       id="current-color-scheme-7-1"
       type="text/css">
      .ColorScheme-Text {
        color:#122036;
      }
      </style>
    <style
       id="current-color-scheme-5-2"
       type="text/css">
      .ColorScheme-Text {
        color:#122036;
      }
      </style>
    <linearGradient
       inkscape:collect="always"
       xlink:href="#linearGradient4631"
       id="linearGradient4306"
       x1="31"
       y1="306.1857"
       x2="31"
       y2="285.1857"
       gradientUnits="userSpaceOnUse"
       gradientTransform="matrix(2.0000005,0,0,2.0000005,1.9999849,-514.37155)" />
  </defs>
  <sodipodi:namedview
     id="base"
     pagecolor="#ffffff"
     bordercolor="#666666"
     borderopacity="1.0"
     inkscape:pageopacity="0.0"
     inkscape:pageshadow="2"
     inkscape:zoom="1"
     inkscape:cx="223.25399"
     inkscape:cy="13.053908"
     inkscape:document-units="px"
     inkscape:current-layer="layer1"
     showgrid="true"
     units="px"
     inkscape:window-width="1360"
     inkscape:window-height="711"
     inkscape:window-x="0"
     inkscape:window-y="28"
     inkscape:window-maximized="1"
     objecttolerance="10"
     gridtolerance="10"
     guidetolerance="10">
    <inkscape:grid
       type="xygrid"
       id="grid7897"
       empspacing="4" />
  </sodipodi:namedview>
  <metadata
     id="metadata5">
    <rdf:RDF>
      <cc:Work
         rdf:about="">
        <dc:format>image/svg+xml</dc:format>
        <dc:type
           rdf:resource="http://purl.org/dc/dcmitype/StillImage" />
        <dc:title>Antu icon Theme</dc:title>
      </cc:Work>
    </rdf:RDF>
  </metadata>
  <g
     inkscape:label="Capa 1"
     inkscape:groupmode="layer"
     id="layer1"
     transform="translate(0,-186.64999)">
    <g
       id="g5223"
       transform="translate(23.999997,20.000005)">
      <path
         sodipodi:nodetypes="sccssssssss"
         inkscape:connector-curvature="0"
         id="rect4937-8-6"
         d="m -20.000017,174.65003 42.999986,-4e-5 11.999996,13.99997 h 3.500001 c 2.216009,0 4.000026,1.78402 4.000026,3.99999 v 14.00001 c 0,2.21602 -1.784017,4.00003 -4.000026,4.00003 h -58.499945 c -2.216013,0 -4.000025,-1.78401 -4.000025,-4.00003 v -27.99994 c 0,-2.21598 1.784012,-3.99999 3.999987,-3.99999 z"
         style="opacity:1;vector-effect:none;fill:#3182d9;fill-opacity:1;stroke:none;stroke-width:0.75590551;stroke-linecap:round;stroke-linejoin:round;stroke-miterlimit:4;stroke-dasharray:none;stroke-dashoffset:0;stroke-opacity:1;paint-order:normal" />
      <path
         sodipodi:nodetypes="scccssss"
         inkscape:connector-curvature="0"
         id="rect9379-4-2"
         d="M -20.000093,175.65002 H 21.999906 L 35.999922,191.65 21.999906,205.64998 h -41.999999 c -1.662009,0 -2.999999,-1.33799 -2.999999,-3 v -23.99996 c 0,-1.66201 1.33799,-3 2.999999,-3 z"
         style="opacity:1;fill:url(#linearGradient6795);fill-opacity:1;stroke:none;stroke-width:0.99999994;stroke-opacity:1" />
      <path
         sodipodi:nodetypes="cccssssssssc"
         inkscape:connector-curvature="0"
         id="rect4931-3-6"
         d="M -22.962184,201.64999 H 22.999969 L 34.999965,188.65 h 65.000065 c 2.21596,0 3.99998,1.78401 3.99998,4.00003 v 89.99996 c 0,2.21597 -1.78402,3.99999 -3.99998,3.99999 H -19.999979 c -2.216013,0 -4.001121,-1.78402 -4.000025,-3.99999 l 0.0378,-76.99998 c 0.0011,-2.21601 1.783975,-4.00157 3.999987,-4.00002 z"
         style="opacity:1;vector-effect:none;fill:#3182d9;fill-opacity:1;stroke:none;stroke-width:0.75590551;stroke-linecap:round;stroke-linejoin:round;stroke-miterlimit:4;stroke-dasharray:none;stroke-dashoffset:0;stroke-opacity:1;paint-order:normal" />
      <path
         sodipodi:nodetypes="sccssssssss"
         inkscape:connector-curvature="0"
         id="rect9376-6-1"
         d="m -20.000093,202.64998 h 44.000008 l 12.000007,-12.99999 h 63.999983 c 1.662015,0 3.000005,1.33799 3.000005,3 v 90 c 0,1.66201 -1.33799,3 -3.000005,3 H -20.000093 c -1.662009,0 -2.999999,-1.33799 -2.999999,-3 v -77.00001 c 0,-1.66201 1.33799,-3.00386 2.999999,-3 z"
         style="opacity:1;fill:url(#linearGradient4532);fill-opacity:1;stroke:none;stroke-width:0.99999994;stroke-opacity:1" />
    </g>
    <g
       id="layer1-9"
       inkscape:label="Capa 1">
      <g
         transform="translate(23.999997,20.000005)"
         id="g5223-1" />
      <path
         inkscape:connector-curvature="0"
         style="opacity:1;fill:#358bd9;fill-opacity:1;stroke:none;stroke-width:8.00000191;stroke-linecap:round;stroke-linejoin:round;stroke-miterlimit:4;stroke-dasharray:none;stroke-dashoffset:0;stroke-opacity:1"
         d="m 64,239.64999 c -7.756002,0 -14,6.244 -14,14 v 4 h -2 c -1.108,0 -2,0.89199 -2,2 v 26 c 0,1.108 0.892,2 2,2 h 20 2 1 1 8 c 1.108,0 2,-0.892 2,-2 v -2 -4 -4 -4 -12 c 0,-1.10801 -0.892,-2 -2,-2 h -2 v -4 c 0,-7.756 -6.243998,-14 -14,-14 z m 0,6 c 4.432001,0 8,3.568 8,8 v 4 H 56 v -4 c 0,-4.432 3.567999,-8 8,-8 z m -0.207031,20 h 0.414062 c 2.102233,0 3.792969,1.69074 3.792969,3.79296 v 0.41407 c 0,1.44746 -0.813976,2.68402 -2,3.32422 v 6.46875 c 0,1.108 -0.892,2 -2,2 -1.108,0 -2,-0.892 -2,-2 v -6.46875 c -1.186024,-0.6402 -2,-1.87676 -2,-3.32422 v -0.41407 c 0,-2.10222 1.690736,-3.79296 3.792969,-3.79296 z"
         id="rect4256-0-6" />
      <g
         inkscape:label="Capa 1"
         id="layer1-6"
         transform="matrix(2.0000005,0,0,2.0000005,-1.5e-5,-314.65013)">
        <g
           transform="translate(0,-1.0000054)"
           id="g4164">
          <path
             style="opacity:1;fill:url(#linearGradient4306);fill-opacity:1.0;stroke:none;stroke-width:8.00000191;stroke-linecap:round;stroke-linejoin:round;stroke-miterlimit:4;stroke-dasharray:none;stroke-dashoffset:0;stroke-opacity:1"
             d="M 64 52 C 56.243998 52 50 58.243998 50 66 L 50 70 L 48 70 C 46.892 70 46 70.892 46 72 L 46 98 C 46 99.108 46.892 100 48 100 L 68 100 L 70 100 L 71 100 L 72 100 L 80 100 C 81.108 100 82 99.108 82 98 L 82 96 L 82 92 L 82 88 L 82 84 L 82 72 C 82 70.892 81.108 70 80 70 L 78 70 L 78 66 C 78 58.243998 71.756002 52 64 52 z M 64 58 C 68.432001 58 72 61.567999 72 66 L 72 70 L 56 70 L 56 66 C 56 61.567999 59.567999 58 64 58 z M 63.792969 78 L 64.207031 78 C 66.309264 78 68 79.690748 68 81.792969 L 68 82.207031 C 68 83.654492 67.186024 84.89105 66 85.53125 L 66 92 C 66 93.108 65.108 94 64 94 C 62.892 94 62 93.108 62 92 L 62 85.53125 C 60.813976 84.89105 60 83.654492 60 82.207031 L 60 81.792969 C 60 79.690748 61.690736 78 63.792969 78 z "
             transform="matrix(0.49999988,0,0,0.49999988,7.4999981e-6,251.65)"
             id="rect4256-0" />
        </g>
      </g>
    </g>
  </g>
</svg>
